symbols/web/monitoring/materialsymbolsoutlined/monitoring_wght200_48px.svg

<svg xmlns="http://www.w3.org/2000/svg" height="48" width="48"><path d="M7 41v-2.5l1.55-1.55V41Zm8.15 0V30.5l1.5-1.55V41Zm8.1 0V28.95l1.5 1.6V41Zm8.1 0V30.55L32.9 29v12Zm8.1 0V22.5L41 20.95V41ZM7 28.55V26.4l13-12.95 8 8L41 8.4v2.2l-13 13-8-8Z"/></svg>

<svg xmlns="http://www.w3.org/2000/svg" height="48" width="48"><path d="M7 28.55V26.4L20 13.45L28 21.45L41 8.4V10.6L28 23.6L20 15.6ZM39.45 41V22.5L41 20.95V41ZM15.15 41V30.5L16.65 28.95V41ZM23.25 41V28.95L24.75 30.55V41ZM31.35 41V30.55L32.9 29V41ZM7 41V38.5L8.55 36.95V41Z"/></svg>
